img/icons/logo_favorites.svg

<svg width="28" height="26" viewBox="0 0 28 26" fill="none" xmlns="http://www.w3.org/2000/svg">
<path fill-rule="evenodd" clip-rule="evenodd" d="M22.9764 1.48317C19.9702 -0.00302166 16.2058 0.83942 13.9936 3.38446C11.7849 0.839136 8.0333 -0.00167108 5.00987 1.4817L5.00173 1.48599C3.06209 2.45049 1.59537 4.18593 1.01704 6.42C0.439693 8.65462 0.783821 11.2468 2.19303 13.8984C4.07997 17.4666 7.35629 20.1651 12.4473 24.3583L13.1661 24.9509C13.4003 25.1439 13.6909 25.2501 13.9918 25.2501C14.2928 25.2501 14.5835 25.1438 14.8177 24.9509L15.5351 24.3594C20.6256 20.1668 23.9023 17.4682 25.7894 13.901C27.2105 11.2508 27.5625 8.65715 26.985 6.41987C26.4052 4.18064 24.9281 2.44598 22.9764 1.48317ZM15.2065 6.46305C16.2916 3.95843 19.4516 2.82243 21.8386 4.00138C23.1279 4.63739 24.0475 5.74507 24.4102 7.14746C24.773 8.55024 24.6124 10.3966 23.461 12.5417L23.4548 12.5549C21.887 15.5164 19.152 17.8278 13.9924 22.083C8.83332 17.8291 6.09848 15.5177 4.5305 12.5576L4.52502 12.5473C3.38439 10.4024 3.22787 8.55441 3.59083 7.14754C3.95471 5.74239 4.87015 4.63608 6.14604 4.00142C8.55825 2.82003 11.6932 3.95978 12.7772 6.46305C12.8818 6.70454 13.0509 6.91124 13.266 7.05709C13.4814 7.20305 13.7334 7.28148 13.9918 7.28148C14.2503 7.28148 14.5023 7.20305 14.7177 7.05709C14.9328 6.91124 15.1019 6.70454 15.2065 6.46305Z" fill="#141414"/>
</svg>

<svg width="28" height="26" fill="none" xmlns="http://www.w3.org/2000/svg"><path fill-rule="evenodd" clip-rule="evenodd" d="M22.976 1.483C19.97-.003 16.206.84 13.994 3.384 11.784.84 8.034-.002 5.01 1.482l-.008.004A7.568 7.568 0 001.017 6.42C.44 8.655.784 11.247 2.193 13.898c1.887 3.569 5.163 6.267 10.254 10.46l.72.593c.233.193.524.3.825.3.3 0 .591-.107.826-.3l.717-.592c5.09-4.192 8.367-6.89 10.254-10.458 1.421-2.65 1.773-5.244 1.196-7.481a7.56 7.56 0 00-4.009-4.937zm-7.77 4.98c1.086-2.505 4.246-3.64 6.633-2.462 1.289.636 2.209 1.744 2.571 3.146.363 1.403.202 3.25-.949 5.395l-.006.013c-1.568 2.961-4.303 5.273-9.463 9.528-5.159-4.254-7.894-6.565-9.462-9.525l-.005-.01c-1.14-2.146-1.297-3.994-.934-5.4A4.811 4.811 0 016.146 4c2.412-1.181 5.547-.041 6.631 2.462.105.242.274.448.489.594a1.293 1.293 0 001.452 0 1.38 1.38 0 00.489-.594z" fill="#141414"/></svg>
